X:856
T:Coleman's 1
R:Slip Jig
O:Ireland
S:Music from Ireland Vol. 3
B:Music from Ireland Vol. 3
Z:Transcription, chords:Mike Long
M:9/8
L:1/8
K:G
"Am"e2A A3 E2D|E2A A2B c2d|e2A A3 E2D|"G"E2G G2F G2B:|
|:"Am"e2a a2g a2g|e2a a2a g2e|"G"d2g g2f g3|a2g g2e d3:|
